!!!OTL: JETZ GANG I DURCHS WIESETHAL
!!!ARE: Europa, Mitteleuropa, Deutschland, Baden, Schwarzwald
!!!SCT: E0703
!!!YEM: Copyright 1995, estate of Helmut Schaffrath.
**kern
*ICvox
*Ivox
*M3/4
*k[f#]
*G:
{4d
=1
4.g
8b
4b
=2
4b
4a
4a
=3
2g
4r}
=4
{2.a
=5
4.b
8dd
4dd
=6
4dd
4cc
4cc
=7
[2.b
=8
4b]
4r}
{4b
=9
4b
4dd
8dd
8ee
=10
4dd
4cc}
{4cc
=11
8b
8b
4dd
4b
=12
4b
4a
8r}
{8d
=13
4.g
8a
8b
8cc
=14
4dd
4dd
4ee
=15
2.dd}
=16
{2.ee
=17
4.dd
8cc
4b
=18
4.cc
8b
4a
=19
[2.b
=20
4b]
4r}
==
!!!AGN: Liebes - Lied, Leid, Klage
!!!ONB: ESAC (Essen Associative Code) Database: ERK2
!!!AMT: simple triple
!!!AIN: vox
!!!EED: Helmut Schaffrath
!!!EEV: 1.0
*-
